outputs/icons/action/home_round.svg

<svg width="1200" height="1200" viewBox="0 0 1200 1200" fill="none" xmlns="http://www.w3.org/2000/svg"><g clip-path="url(#clip0_217_679)"><path d="M500.005 950.01V700.01H700.005V950.01C700.005 977.51 722.505 1000.01 750.005 1000.01H900.005C927.505 1000.01 950.005 977.51 950.005 950.01V600.01H1035.005C1058.005 600.01 1069.005 571.51 1051.505 556.51L633.505 180.011C614.505 163.01 585.505 163.01 566.505 180.011L148.505 556.51C131.505 571.51 142.005 600.01 165.005 600.01H250.005V950.01C250.005 977.51 272.505 1000.01 300.005 1000.01H450.005C477.505 1000.01 500.005 977.51 500.005 950.01Z" fill="#1D1E23"/></g><defs><clipPath id="clip0_217_679"><path width="24" fill="white" d="M0 0H1200V1200H0V0z"/></clipPath></defs></svg>

<svg xmlns="http://www.w3.org/2000/svg" width="1200" height="1200" fill="none"><g clip-path="url(#a)"><path fill="#000" d="M500.005 950.01v-250h200v250c0 27.5 22.5 50 50 50h150c27.5 0 50-22.5 50-50v-350h85c23 0 34-28.5 16.5-43.5l-418-376.499c-19-17-48-17-67 0l-418 376.499c-17 15-6.5 43.5 16.5 43.5h85v350c0 27.5 22.5 50 50 50h150c27.5 0 50-22.5 50-50"/></g><defs><clipPath id="a"><path fill="#fff" d="M0 0h1200v1200H0z"/></clipPath></defs></svg>
